!!!OTL: WENNS DIBBE ABER NUN E LOCH HAT
!!!ARE: Europa, Mitteleuropa, Deutschland, Hessen, Lahn - Gegend
!!!SCT: E1741A
!!!YEM: Copyright 1995, estate of Helmut Schaffrath.
**kern
*ICvox
*Ivox
*M3/4
*k[f#]
*G:
{8dd
8dd
=1
8ee
8ee
8dd
8dd
8cc
8cc
=2
4cc
4b}
{8b
8b
=3
4b
4a
8cc
8cc
=4
4cc
4b}
{4dd
=5
4ee
8dd
8dd
8cc
8cc
=6
4cc
4b}
{8b
8b
=7
4b
4a
8dd
8dd
=8
2g}
==
!!!AGN: Scherz -, Spiel - Lied
!!!ONB: ESAC (Essen Associative Code) Database: ERK3
!!!AMT: simple triple
!!!AIN: vox
!!!EED: Helmut Schaffrath
!!!EEV: 1.0
*-
